build/system/ArrowUpOutline.svg

<svg xmlns="http://www.w3.org/2000/svg" fill="none" viewBox="0 0 24 24" focusable="false"><path d="M0 0H24V24H0z"/><path fill="#74767B" fill-rule="evenodd" d="M6.0308 12.4404C5.8908 12.3104 5.8208 12.1404 5.8208 11.9604C5.8208 11.8004 5.8708 11.6504 5.9908 11.5204L11.4808 5.48036C11.7608 5.17036 12.2408 5.17036 12.5208 5.48036L18.0108 11.5204C18.2508 11.7904 18.2308 12.2004 17.9708 12.4404C17.7008 12.6804 17.2908 12.6704 17.0508 12.4004L12.6508 7.56472L12.6508 18.4604C12.6508 18.8193 12.3598 19.1104 12.0008 19.1104C11.6418 19.1104 11.3508 18.8193 11.3508 18.4604L11.3508 7.56472L6.9508 12.4004C6.7108 12.6604 6.3008 12.6804 6.0308 12.4404Z"/></svg>

<svg xmlns="http://www.w3.org/2000/svg" fill="none" viewBox="0 0 24 24" focusable="false"><path fill="#74767B" fill-rule="evenodd" d="M6.03 12.44a.65.65 0 0 1-.21-.48c0-.16.05-.31.17-.44l5.49-6.04c.28-.31.76-.31 1.04 0l5.49 6.04c.24.27.22.68-.04.92a.65.65 0 0 1-.92-.04l-4.4-4.84v10.9c0 .35-.3.65-.65.65-.36 0-.65-.3-.65-.65V7.56l-4.4 4.84c-.24.26-.65.28-.92.04"/></svg>
